X:889
T:O'Connor Donn's
T:Connor Dunn's
R:reel
Z:id:hn-reel-889
M:C|
L:1/8
K:G
B2AG dGGA | B2AG ~A3G | F2DE FAfe | d2cA BGGA |
B2AG dGGA | B2AG ~A3G | F2DE FAfe |1 d2cA ~G3A :|2 d2cA ~G3d ||
|: faaf defa | defa ~d3e | faaf defd | eggf gbag |
faag faag | faag fade | faab c'bag |1 fgaf ~g3d :|2 fgaf gedc ||
P:variations
|: B2AG dGGA | BdAG ABGA | ~F3G Agfe | d2cA BAGA |
B2AG dGGA | B2AG A2GA | FADE Fgfe |1 d2cA ~G3A :|2 d2cA ~G3d ||
|: ~a3f defa | defa ~d3e | fdaf defd | eggf ~g3e |
fgag fgag | fgag fdde | faab c'bag |1 fdaf ~g3d :|2 fdaf gedc ||

